; generated by PrusaSlicer 2.9.4 on 2026-05-11 at 08:41:24 UTC


;
;

;
;

;
;

;
;
; 

; external perimeters extrusion width = 0.62mm
; perimeters extrusion width = 0.62mm
; infill extrusion width = 0.65mm
; solid infill extrusion width = 0.65mm
; top infill extrusion width = 0.50mm
; support material extrusion width = 0.50mm
; first layer extrusion width = 0.68mm

; external perimeters extrusion width = 0.62mm
; perimeters extrusion width = 0.62mm
; infill extrusion width = 0.65mm
; solid infill extrusion width = 0.65mm
; top infill extrusion width = 0.50mm
; support material extrusion width = 0.50mm
; first layer extrusion width = 0.68mm

M73 P0 R3
M73 Q0 S3
M201 X4000 Y4000 Z200 E2500 ; sets maximum accelerations, mm/sec^2
M203 X300 Y300 Z40 E100 ; sets maximum feedrates, mm / sec
M204 P4000 R2500 T4000 ; sets acceleration (P, T) and retract acceleration (R), mm/sec^2
M205 X8.00 Y8.00 Z2.00 E10.00 ; sets the jerk limits, mm/sec
M205 J0.010 ; sets the junction deviation, mm
M205 S0 T0 ; sets the minimum extruding and travel feed rate, mm/sec

M486 S0
M486 APolea_dedoGordo_parte2.stl
M486 S-1
M486 S1
M486 APolea_dedoGordo_parte1.stl
M486 S-1

;TYPE:Custom
M17 ; enable steppers
M862.1 P0.6 A0 F1 ; nozzle check
M862.3 P "MK3.9S" ; printer model check
M862.5 P2 ; g-code level check
M862.6 P"Input shaper" ; FW feature check
M115 U6.5.3+12780

M555 X112.311 Y68.0907 W32 H66.6607

G90 ; use absolute coordinates
M83 ; extruder relative mode

M140 S60 ; set bed temp
M104 T0 S170 ; set extruder temp for bed leveling
M109 T0 R170 ; wait for temp

M84 E ; turn off E motor

G28 ; home all without mesh bed level

G1 X42 Y-4 Z5 F4800

M302 S155 ; lower cold extrusion limit to 155C


G1 E-2 F2400 ; retraction


M84 E ; turn off E motor

G29 P9 X10 Y-4 W32 H4

M106 S100

G0 Z40 F10000

M190 S60 ; wait for bed temp

M107

;
; MBL
;
M84 E ; turn off E motor
G29 P1 ; invalidate mbl & probe print area
G29 P1 X0 Y0 W50 H20 C ; probe near purge place
G29 P3.2 ; interpolate mbl probes
G29 P3.13 ; extrapolate mbl outside probe area
G29 A ; activate mbl

; prepare for purge
M104 S220
G0 X0 Y-4 Z15 F4800 ; move away and ready for the purge
M109 S220

G92 E0
M569 S0 E ; set spreadcycle mode for extruder

;
; Extrude purge line
;
G92 E0 ; reset extruder position
G1 E2 F2400 ; deretraction after the initial one before nozzle cleaning
M73 P1 R3
M73 Q1 S3
G0 E7 X15 Z0.2 F500 ; purge
G0 X25 E4 F500 ; purge
M73 P2 R3
M73 Q2 S3
G0 X35 E4 F650 ; purge
G0 X45 E4 F800 ; purge
M73 P3 R3
M73 Q3 S3
G0 X48 Z0.05 F8000 ; wipe, move close to the bed
G0 X51 Z0.2 F8000 ; wipe, move quickly away from the bed

G92 E0
M221 S100 ; set flow to 100%
G21 ; set units to millimeters
G90 ; use absolute coordinates
M83 ; use relative distances for extrusion

M572 S0.012 ; Pressure advance


M142 S40 ; set heatbreak target temp
M107
;LAYER_CHANGE
;Z:0.2
;HEIGHT:0.2
G1 E-.7 F2100
G1 Z1.7 F720
M486 S1
G1 X124.76 Y78.915 F18000
G1 Z.2 F720
G1 E.7 F1500
M204 P500
;TYPE:Perimeter
;WIDTH:0.679999
G1 F2354.496
G3 X124.767 Y78.915 I.119 J3.341 E.00037
G3 X126.07 Y79.187 I-.155 J3.998 E.07084
G1 X126.706 Y79.56 E.03906
G3 X127.431 Y80.327 I-4.113 J4.61 E.05598
G3 X127.885 Y81.38 I-3.002 J1.921 E.06101
M73 P4 R3
G1 X127.966 Y82.112 E.03901
G1 X127.875 Y82.844 E.03907
G3 X127.458 Y83.814 I-5.863 J-1.95 E.056
M73 Q4 S3
G3 X126.671 Y84.648 I-2.962 J-2.006 E.06101
G1 X126.03 Y85.012 E.03905
G1 X125.343 Y85.213 E.03792
G3 X123.863 Y85.123 I-.528 J-3.521 E.07912
G1 X123.1 Y84.769 E.04456
G1 X122.599 Y84.381 E.03357
G3 X122.018 Y83.625 I3.829 J-3.546 E.05058
G3 X121.641 Y82.437 I3.504 J-1.765 E.06631
G1 X121.661 Y81.644 E.04202
G1 X121.802 Y81.049 E.03239
G3 X122.285 Y80.15 I4.629 J1.909 E.05416
G3 X123.227 Y79.333 I3.01 J2.518 E.06634
G1 X123.898 Y79.06 E.03837
G3 X124.67 Y78.919 I.981 J3.196 E.04167
M204 P2500
M204 T250
G1 X124.764 Y79.555 F18000
M204 T4000
M204 P500
;TYPE:External perimeter
G1 F2354.496
G3 X124.79 Y79.553 I.245 J3.384 E.00138
G3 X125.862 Y79.789 I-.115 J3.078 E.05846
G3 X127.094 Y81.019 I-1.248 J2.483 E.0938
G3 X127.246 Y82.743 I-2.507 J1.089 E.09328
G1 X126.983 Y83.371 E.03607
G3 X125.735 Y84.447 I-2.311 J-1.418 E.08869
G3 X124.577 Y84.619 I-1.035 J-2.989 E.06238
G3 X122.999 Y83.885 I.324 J-2.76 E.09377
G3 X122.267 Y82.316 I1.984 J-1.882 E.09332
G3 X122.436 Y81.153 I3.437 J-.094 E.06256
G3 X123.586 Y79.859 I2.513 J1.076 E.09331
G3 X124.675 Y79.563 I1.424 J3.08 E.06006
M204 P2500
G1 E-.56 F2100
;WIPE_START
G1 F14400
G1 X124.764 Y79.555 E-.01238
G3 X124.79 Y79.553 I.273 J3.382 E-.00361
G3 X125.667 Y79.715 I-.116 J3.078 E-.12401
;WIPE_END
G1 X115.976 Y82.029 Z.374 F18000
G1 Z.2 F720
G1 E.7 F1500
M204 P500
;TYPE:Perimeter
G1 F2354.496
G3 X124.794 Y73.269 I8.816 J.057 E.73072
G3 X133.608 Y82.238 I-.013 J8.828 E.74137
G3 X115.976 Y82.119 I-8.816 J-.152 E1.45892
M73 P5 R3
M73 Q5 S3
M204 P2500
M204 T250
G1 X115.343 Y82.063 F18000
M204 T4000
M204 P500
;TYPE:External perimeter
G1 F2354.496
G3 X125.783 Y72.683 I9.46 J.03 E.83763
G3 X134.201 Y81.102 I-1.015 J9.434 E.68175
G1 X134.244 Y82.272 E.06202
G3 X121.871 Y91.087 I-9.459 J-.185 E.93433
G3 X115.343 Y82.153 I2.932 J-8.994 E.62607
M73 P6 R3
M204 P2500
G1 E-.56 F2100
;WIPE_START
G1 F14400
G1 X115.343 Y82.063 E-.01247
G3 X115.391 Y81.144 I9.46 J.03 E-.12753
;WIPE_END
G1 X129.024 Y74.645 Z.464 F18000
G1 Z.2 F720
M73 Q6 S3
G1 E.7 F1500
M204 P500
;TYPE:Solid infill
;WIDTH:0.703399
G1 F2271.079
G1 X131.017 Y76.638 E.15479
G3 X132.475 Y79.03 I-6.066 J5.338 E.15463
G1 X127.855 Y74.41 E.35882
G2 X126.515 Y73.993 I-3.176 J7.838 E.07716
G1 X126.501 Y73.99 E.00079
G1 X132.894 Y80.384 E.49657
G3 X133.04 Y81.463 I-8.413 J1.685 E.05984
G1 X125.421 Y73.845 E.59171
G2 X124.478 Y73.836 I-.529 J6.267 E.05184
G1 X133.056 Y82.413 E.66619
G3 X132.978 Y83.269 I-5.239 J-.046 E.04726
G1 X123.615 Y73.907 E.72716
G2 X122.832 Y74.057 I.579 J5.129 E.04383
M73 P7 R3
M73 Q7 S3
G1 X132.828 Y84.053 E.77636
G1 X132.618 Y84.778 E.04145
G1 X122.107 Y74.266 E.8164
G1 X121.432 Y74.525 E.03971
G1 X125.335 Y78.428 E.30314
G2 X124.386 Y78.413 I-.516 J2.625 E.0524
G1 X120.813 Y74.84 E.27751
G2 X120.233 Y75.195 I2.206 J4.261 E.03738
G1 X123.627 Y78.589 E.2636
G1 X123.085 Y78.787 E.03169
G1 X122.969 Y78.865 E.00768
G1 X119.69 Y75.586 E.25467
G1 X119.254 Y75.938 E.03077
M73 P8 R3
G1 X119.181 Y76.011 E.00567
G1 X122.41 Y79.24 E.25079
G1 X121.951 Y79.715 E.03628
G1 X118.714 Y76.478 E.25141
M73 Q8 S3
G1 X118.289 Y76.987 E.03642
G1 X121.571 Y80.269 E.2549
G2 X121.28 Y80.912 I2.059 J1.319 E.0389
G1 X117.898 Y77.53 E.26267
G2 X117.543 Y78.109 I3.905 J2.785 E.03733
G1 X121.122 Y81.688 E.27797
G1 X121.083 Y82.336 E.03565
G1 X121.137 Y82.637 E.01679
G1 X117.015 Y78.515 E.32014
M204 P2500
G1 E-.56 F2100
;WIPE_START
G1 F14400
G1 X117.73 Y79.23 E-.14
;WIPE_END
G1 X128.082 Y81.175 Z.384 F18000
G1 Z.2 F720
G1 E.7 F1500
M204 P500
G1 F2271.079
G1 X132.359 Y85.453 E.33222
G1 X132.044 Y86.072 E.03814
G1 X128.478 Y82.505 E.277
G3 X128.311 Y83.272 I-3.319 J-.321 E.04321
G1 X131.69 Y86.652 E.26248
M73 P9 R3
G3 X131.299 Y87.195 I-3.352 J-2 E.03679
G1 X128.023 Y83.919 E.25444
G1 X127.638 Y84.468 E.03683
M73 Q9 S3
G1 X130.874 Y87.703 E.25129
G1 X130.407 Y88.17 E.03627
G1 X127.165 Y84.929 E.25176
G3 X126.611 Y85.309 I-1.328 J-1.341 E.03709
G1 X129.898 Y88.596 E.25529
G3 X129.355 Y88.987 I-2.543 J-2.961 E.03679
G1 X125.978 Y85.61 E.26228
G3 X125.215 Y85.781 I-1.574 J-5.251 E.04298
G1 X128.775 Y89.341 E.2765
G1 X128.156 Y89.656 E.03814
G1 X123.883 Y85.383 E.33187
M204 P2500
G1 E-.56 F2100
;WIPE_START
G1 F14400
G1 X124.598 Y86.098 E-.14
;WIPE_END
G1 X127.703 Y90.137 Z.289 F18000
G1 Z.2 F720
G1 E.7 F1500
M204 P500
G1 F2271.079
G1 X116.97 Y79.404 E.8336
G1 X116.76 Y80.129 E.04145
M73 P10 R3
M73 Q10 S3
G1 X126.756 Y90.124 E.77632
G3 X125.973 Y90.275 I-1.363 J-4.98 E.04384
G1 X116.61 Y80.912 E.7272
G2 X116.532 Y81.768 I5.161 J.902 E.04726
G1 X125.117 Y90.353 E.66677
G3 X124.167 Y90.337 I-.376 J-5.937 E.05224
G1 X116.548 Y82.718 E.59175
G2 X116.694 Y83.798 I8.562 J-.606 E.05989
M73 P11 R3
G1 X123.087 Y90.191 E.49653
G3 X121.733 Y89.772 I1.782 J-8.145 E.07793
G1 X117.113 Y85.151 E.35886
G2 X118.571 Y87.544 I7.525 J-2.946 E.15467
M73 Q11 S3
G1 X120.563 Y89.536 E.15471
M204 P2500
G1 E-.56 F2100
;WIPE_START
G1 F14400
G1 X119.849 Y88.821 E-.14
;WIPE_END
M486 S-1
M486 S0
G1 X125.43 Y124.198 Z.825 F18000
G1 Z.2 F720
G1 E.7 F1500
M204 P500
;TYPE:Perimeter
;WIDTH:0.679999
G1 F2354.496
G3 X125.451 Y124.297 I-5.074 J1.149 E.00536
G3 X125.385 Y125.542 I-3.903 J.417 E.06633
G1 X125.09 Y126.281 E.04215
G1 X124.702 Y126.842 E.03613
G1 X124.184 Y127.313 E.03709
G3 X123.307 Y127.768 I-2.774 J-4.279 E.05242
G3 X122.069 Y127.919 I-1.089 J-3.771 E.06635
G1 X121.346 Y127.778 E.03902
G3 X120.449 Y127.323 I2.162 J-5.372 E.05335
G3 X119.629 Y126.451 I2.155 J-2.848 E.06371
G1 X119.31 Y125.786 E.03907
G1 X119.153 Y125.066 E.03904
G1 X119.175 Y124.309 E.04012
G3 X119.436 Y123.412 I4.641 J.863 E.04957
G3 X120.175 Y122.408 I3.49 J1.796 E.06632
G1 X120.774 Y121.979 E.03903
G1 X121.514 Y121.686 E.04216
G1 X122.161 Y121.587 E.03467
G3 X123.135 Y121.69 I-.054 J5.142 E.05196
G3 X124.252 Y122.244 I-1.163 J3.749 E.06633
G1 X124.813 Y122.808 E.04214
G1 X125.174 Y123.387 E.03614
G3 X125.409 Y124.11 I-4.818 J1.96 E.04031
M204 P2500
M204 T250
G1 X124.792 Y124.311 F18000
M204 T4000
M204 P500
;TYPE:External perimeter
G1 F2354.496
G3 X124.848 Y124.853 I-3.404 J.625 E.02889
G3 X124.191 Y126.462 I-2.763 J-.19 E.09365
G3 X123.226 Y127.123 I-2.276 J-2.285 E.06231
G3 X122.066 Y127.282 I-.989 J-2.908 E.06241
G3 X120.993 Y126.913 I.368 J-2.814 E.06052
G3 X119.894 Y125.531 I1.429 J-2.265 E.09532
G1 X119.78 Y124.952 E.03126
G1 X119.811 Y124.352 E.03183
M73 P12 R3
G3 X120.245 Y123.279 I3.156 J.653 E.06165
G3 X121.127 Y122.509 I2.425 J1.887 E.0624
G1 X121.726 Y122.287 E.03384
G3 X122.848 Y122.273 I.598 J3.079 E.05976
G3 X124.623 Y123.705 I-.614 J2.578 E.12489
G3 X124.775 Y124.223 I-3.235 J1.231 E.02863
M204 P2500
G1 E-.56 F2100
;WIPE_START
G1 F14400
G1 X124.792 Y124.311 E-.01242
G3 X124.848 Y124.853 I-3.404 J.626 E-.07557
G3 X124.797 Y125.225 I-2.763 J-.19 E-.05201
;WIPE_END
G1 X113.492 Y124.692 Z.398 F18000
G1 Z.2 F720
M73 Q12 S3
G1 E.7 F1500
M204 P500
;TYPE:Perimeter
G1 F2354.496
G3 X118.037 Y117.038 I8.817 J.059 E.4943
G3 X131.12 Y124.436 I4.267 J7.722 E.95287
G3 X113.492 Y124.782 I-8.811 J.315 E1.48064
M204 P2500
M204 T250
G1 X112.858 Y124.726 F18000
M204 T4000
M204 P500
;TYPE:External perimeter
G1 F2354.496
G3 X119.58 Y115.698 I9.476 J.039 E.63842
M73 P13 R3
G3 X131.65 Y123.25 I2.718 J9.078 E.85334
M73 Q13 S3
G1 X131.757 Y124.436 E.06308
G3 X127.328 Y132.774 I-9.472 J.314 E.52354
G3 X113.697 Y128.664 I-5.01 J-8.043 E.85328
G3 X112.858 Y124.816 I8.637 J-3.899 E.21016
M204 P2500
G1 E-.56 F2100
;WIPE_START
G1 F14400
G1 X112.858 Y124.726 E-.01247
G3 X112.906 Y123.807 I9.475 J.039 E-.12753
;WIPE_END
G1 X129.711 Y120.465 Z.499 F18000
G1 Z.2 F720
G1 E.7 F1500
M204 P500
;TYPE:Solid infill
;WIDTH:0.704008
G1 F2268.987
G1 X127.955 Y118.708 E.13655
G2 X125.395 Y117.083 I-5.52 J5.867 E.16768
G1 X129.996 Y121.684 E.35768
G3 X130.393 Y123.016 I-7.162 J2.861 E.07651
G1 X124.046 Y116.669 E.49341
G2 X122.955 Y116.513 I-1.453 J6.255 E.06066
M73 P14 R3
G1 X130.557 Y124.115 E.59097
G3 X130.578 Y125.071 I-7.598 J.648 E.0526
M73 Q14 S3
G1 X122.005 Y116.498 E.66646
G2 X121.143 Y116.57 I-.058 J4.475 E.04762
G1 X130.5 Y125.928 E.72744
G3 X130.347 Y126.709 I-6.992 J-.966 E.04377
G1 X120.359 Y116.722 E.77642
G2 X119.634 Y116.932 I.865 J4.331 E.04154
G1 X130.134 Y127.431 E.81622
G3 X129.87 Y128.103 I-3.952 J-1.16 E.03974
M73 P15 R3
G1 X125.985 Y124.217 E.30205
G1 X126.026 Y124.953 E.04052
M73 Q15 S3
G1 X125.993 Y125.161 E.01158
G1 X129.564 Y128.731 E.27757
G1 X129.217 Y129.319 E.03753
G1 X125.83 Y125.932 E.2633
G1 X125.541 Y126.579 E.03895
G1 X128.82 Y129.857 E.25487
G3 X128.388 Y130.36 I-3.298 J-2.392 E.03649
G1 X125.16 Y127.132 E.25094
G3 X124.688 Y127.595 I-1.934 J-1.497 E.03646
G1 X127.923 Y130.83 E.25149
G1 X127.424 Y131.266 E.03643
G1 X124.138 Y127.98 E.25545
G1 X123.586 Y128.25 E.03378
G1 X123.496 Y128.273 E.00511
G1 X126.875 Y131.652 E.26268
G3 X126.29 Y132.002 I-2.52 J-3.552 E.03751
M73 P16 R3
G1 X122.736 Y128.448 E.27628
G1 X121.869 Y128.449 E.04766
G1 X121.782 Y128.429 E.00491
G1 X125.884 Y132.531 E.31888
M204 P2500
G1 E-.56 F2100
M73 Q16 S3
;WIPE_START
G1 F14400
G1 X125.169 Y131.816 E-.14
;WIPE_END
G1 X123.218 Y121.45 Z.384 F18000
G1 Z.2 F720
G1 E.7 F1500
M204 P500
G1 F2268.987
G1 X118.959 Y117.192 E.33105
G1 X118.33 Y117.498 E.03845
G1 X121.907 Y121.075 E.27807
G2 X121.147 Y121.249 I.123 J2.279 E.04307
G1 X117.753 Y117.855 E.26385
G2 X117.211 Y118.248 I2.111 J3.477 E.03684
G1 X120.491 Y121.529 E.25502
G1 X119.929 Y121.901 E.03705
G1 X116.704 Y118.676 E.25071
G1 X116.23 Y119.137 E.03635
G1 X119.467 Y122.374 E.25164
G2 X119.088 Y122.93 I1.947 J1.737 E.03709
M73 P17 R3
G1 X115.806 Y119.648 E.25514
G2 X115.416 Y120.193 I3.193 J2.695 E.03688
G1 X118.798 Y123.575 E.26291
G2 X118.636 Y124.348 I2.36 J.898 E.04359
G1 X115.063 Y120.775 E.27776
G1 X114.748 Y121.395 E.03823
M73 Q17 S3
G1 X119.006 Y125.653 E.33101
M204 P2500
G1 E-.56 F2100
;WIPE_START
G1 F14400
G1 X118.291 Y124.938 E-.14
;WIPE_END
G1 X114.264 Y121.846 Z.289 F18000
G1 Z.2 F720
G1 E.7 F1500
M204 P500
G1 F2268.987
G1 X124.998 Y132.58 E.83445
G1 X124.28 Y132.796 E.04122
G1 X114.277 Y122.793 E.77762
G2 X114.127 Y123.578 I5.221 J1.406 E.04397
G1 X123.493 Y132.945 E.72814
M73 P18 R3
G1 X122.636 Y133.023 E.0473
G1 X114.049 Y124.436 E.66754
G2 X114.066 Y125.387 I5.873 J.373 E.05234
M73 Q18 S3
G1 X121.687 Y133.008 E.59245
G3 X120.588 Y132.844 I.757 J-8.833 E.06112
G1 X114.213 Y126.47 E.49555
G2 X114.635 Y127.827 I7.859 J-1.7 E.07822
G1 X119.247 Y132.438 E.35849
G3 X116.859 Y130.986 I3.156 J-7.876 E.15433
G1 X114.881 Y129.007 E.15381
M204 P2500
;LAYER_CHANGE
;Z:0.4
;HEIGHT:0.2
;BEFORE_LAYER_CHANGE
G92 E0.0
;0.4
M201 X3999.86 Y3999.86

G1 E-.56 F2100
;WIPE_START
G1 F14400
G1 X115.596 Y129.722 E-.14
;WIPE_END
G1 X115.596 Y129.722 Z.2 F18000
M73 P19 R3
G1 X124.673 Y79.221 Z1.096
;AFTER_LAYER_CHANGE
;0.4
M74 W0.133409

M486 S-1
M486 S1
G1 Z.4 F720
G1 E.7 F1500
M204 P4000
;TYPE:Perimeter
;WIDTH:0.619999
G1 F2599.298
G1 X125.18 Y79.241 E.02435
G3 X125.939 Y79.444 I-.508 J3.417 E.03778
G1 X126.477 Y79.753 E.02977
G1 X126.971 Y80.204 E.0321
G1 X127.348 Y80.757 E.03212
G1 X127.541 Y81.25 E.0254
G3 X127.677 Y82.084 I-3.051 J.927 E.04067
G1 X127.607 Y82.71 E.03023
G1 X127.389 Y83.342 E.03208
G1 X127.069 Y83.85 E.02881
G3 X126.514 Y84.406 I-2.703 J-2.146 E.03778
G1 X125.977 Y84.717 E.02978
G1 X125.339 Y84.919 E.03211
G1 X124.672 Y84.969 E.0321
G1 X124.148 Y84.89 E.02543
G3 X123.359 Y84.592 I.723 J-3.103 E.04059
G1 X122.851 Y84.217 E.0303
M73 Q19 S3
G1 X122.413 Y83.712 E.03208
G1 X122.133 Y83.181 E.02881
G3 X121.929 Y82.423 I3.214 J-1.268 E.03775
G1 X121.928 Y81.803 E.02975
G1 X122.072 Y81.148 E.03218
G1 X122.362 Y80.546 E.03206
G1 X122.693 Y80.132 E.02543
G3 X123.346 Y79.597 I2.328 J2.179 E.04063
G1 X123.923 Y79.345 E.03021
G1 X124.581 Y79.218 E.03216
G1 X124.583 Y79.218 E.0001
M204 P2500
M204 T250
G1 X124.701 Y79.793 F18000
M204 T4000
M204 P4000
;TYPE:External perimeter
G1 F2599.298
G3 X125.204 Y79.821 I.117 J2.355 E.02422
G3 X127.04 Y81.569 I-.453 J2.315 E.12842
G3 X126.163 Y83.947 I-2.304 J.5 E.1284
G3 X123.633 Y84.083 I-1.372 J-1.918 E.12835
G3 X122.505 Y81.814 I1.216 J-2.02 E.12836
G3 X122.873 Y80.815 I2.755 J.448 E.0514
G3 X124.611 Y79.799 I1.945 J1.333 E.0998
M204 P2500
G1 E-.56 F2100
;WIPE_START
G1 F14400
G1 X124.701 Y79.793 E-.0125
G3 X125.204 Y79.821 I.121 J2.355 E-.06993
G3 X125.603 Y79.936 I-.453 J2.314 E-.05757
;WIPE_END
G1 X115.685 Y82.044 Z.577 F18000
G1 Z.4 F720
G1 E.7 F1500
M204 P4000
;TYPE:Perimeter
G1 F2599.298
G3 X121.088 Y73.767 I9.107 J.043 E.50134
G3 X133.897 Y82.254 I3.698 J8.328 E.87717
G3 X115.685 Y82.134 I-9.105 J-.168 E1.36169
M73 P20 R3
M204 P2500
M204 T250
G1 X115.106 Y82.075 F18000
M204 T4000
M204 P4000
;TYPE:External perimeter
G1 F2599.298
G3 X115.157 Y81.078 I9.7 J.001 E.04792
G3 X129.639 Y73.699 I9.645 J1.029 E.92464
M73 P20 R2
M73 Q20 S3
